public/assets/techs/sass.svg

<svg width="20" height="20" viewBox="0 0 20 20" fill="none" xmlns="http://www.w3.org/2000/svg">
<path d="M9.46532 3.13355C8.58201 3.08693 7.5889 3.22231 6.61742 3.55957C5.07367 4.0952 3.40398 4.93766 2.20336 6.03516C0.777107 7.34141 0.548328 8.47824 0.642078 8.95386C0.975828 10.6407 3.35475 11.7412 4.30663 12.5549C4.25975 12.5806 4.21604 12.6026 4.17479 12.6257C3.69729 12.8576 1.92591 13.7685 1.47216 14.7485C0.959656 15.8598 1.55695 16.6552 1.94945 16.7639C3.17383 17.0964 4.38546 16.5153 5.05858 15.5334C5.73233 14.5509 5.65119 13.2687 5.34056 12.6843C5.33744 12.6756 5.33148 12.6699 5.32836 12.6611C5.45148 12.5893 5.57686 12.5169 5.70311 12.4451C5.94624 12.3044 6.18346 12.1761 6.39159 12.0642C6.27409 12.3736 6.18938 12.7468 6.14501 13.2849C6.09251 13.9149 6.35847 14.73 6.70409 15.0513C6.85659 15.1919 7.04078 15.1953 7.15453 15.1953C7.5589 15.1953 7.74063 14.8688 7.94188 14.4788C8.19063 14.0031 8.41063 13.4509 8.41063 13.4509C8.41063 13.4509 8.13602 14.9451 8.88915 14.9451C9.16415 14.9451 9.43985 14.5989 9.56298 14.4214V14.4238C9.56298 14.4238 9.56751 14.4128 9.58251 14.3897C9.61188 14.3465 9.62645 14.3213 9.62645 14.3213V14.3127C9.7377 14.1265 9.98164 13.7 10.3479 12.9956C10.8223 12.085 11.2756 10.9473 11.2756 10.9473C11.3194 11.1973 11.38 11.4439 11.4575 11.6858C11.5394 11.9577 11.7131 12.2558 11.8506 12.5452C11.7393 12.6939 11.6711 12.7795 11.6711 12.7795C11.6711 12.782 11.6729 12.7844 11.6748 12.7856C11.5867 12.9 11.4868 13.0227 11.3843 13.1433C11.0093 13.5789 10.5635 14.0781 10.5054 14.2212C10.4347 14.3899 10.4528 14.5155 10.5871 14.613C10.6865 14.6874 10.8636 14.6988 11.0474 14.6851C11.3842 14.6619 11.6215 14.5813 11.7358 14.53C11.9465 14.4563 12.1454 14.3548 12.3266 14.2273C12.6929 13.9635 12.9161 13.5853 12.8955 13.0872C12.8836 12.8122 12.7919 12.5366 12.6807 12.2791C12.7132 12.2334 12.7489 12.185 12.7808 12.1362C13.3608 11.3087 13.8086 10.4004 13.8086 10.4004C13.8523 10.6504 13.913 10.897 13.9905 11.1389C14.0611 11.3708 14.1987 11.6256 14.3249 11.875C13.7806 12.3075 13.4427 12.8091 13.3252 13.1384C13.1083 13.7484 13.2792 14.0226 13.5986 14.0857C13.7424 14.1144 13.9466 14.0493 14.0991 13.9868C14.3254 13.9131 14.5383 13.8057 14.7314 13.6682C15.0977 13.4045 15.4522 13.0354 15.4285 12.5342C15.4197 12.3079 15.356 12.0815 15.271 11.864C15.731 11.6753 16.328 11.5721 17.0898 11.6577C18.7211 11.844 19.0407 12.8406 18.9795 13.2556C18.9182 13.6712 18.5751 13.9034 18.4607 13.9722C18.3463 14.0409 18.3116 14.0668 18.3203 14.1187C18.3347 14.193 18.387 14.1899 18.4839 14.1724C18.6189 14.1492 19.3388 13.8346 19.3713 13.064C19.4182 12.0907 18.4616 11.0202 16.7663 11.0278H16.7639C16.1754 11.0282 15.5951 11.1602 15.0671 11.4148C14.894 11.0742 14.715 10.7761 14.6863 10.553C14.6513 10.2924 14.6139 10.1379 14.6545 9.8291C14.6958 9.51973 14.8798 9.08095 14.8767 9.04908C14.8736 9.01783 14.8355 8.86055 14.458 8.85742C14.0805 8.8543 13.7545 8.92901 13.717 9.02588C13.6502 9.20401 13.5983 9.38651 13.562 9.57276C13.4945 9.90776 12.8064 11.1054 12.417 11.7297C12.2882 11.486 12.1801 11.2717 12.157 11.0999C12.122 10.8392 12.0834 10.6847 12.124 10.376C12.1653 10.0666 12.3505 9.62782 12.3474 9.59595C12.3443 9.5647 12.3062 9.40742 11.9287 9.4043C11.5512 9.40117 11.2246 9.47588 11.1865 9.57276C11.1484 9.67026 11.1071 9.89901 11.0315 10.1196C10.9552 10.3403 10.0386 12.3347 9.79857 12.8528C9.67545 13.1165 9.56965 13.3286 9.4934 13.4717C9.48152 13.4948 9.47339 13.5093 9.46776 13.5205C9.47651 13.5061 9.48241 13.4917 9.48241 13.4973C9.41804 13.6204 9.37987 13.689 9.37987 13.689V13.6914C9.32987 13.7833 9.27429 13.8672 9.24804 13.8672C9.23054 13.8672 9.19221 13.6265 9.25658 13.2971C9.39408 12.604 9.71991 11.5268 9.71679 11.4893C9.71366 11.4693 9.77694 11.2829 9.50194 11.1829C9.23507 11.0885 9.13995 11.2463 9.1162 11.2463C9.09245 11.2463 9.0747 11.3037 9.0747 11.3037C9.0747 11.3037 9.3696 10.0891 8.50585 10.0891C7.96647 10.0891 7.21626 10.6677 6.84813 11.1914C6.61688 11.3145 6.11587 11.5815 5.58837 11.8652C5.38649 11.974 5.17915 12.0855 4.9829 12.1912C4.96852 12.1768 4.95639 12.1628 4.94139 12.1484C3.89264 11.0541 1.95669 10.2804 2.03856 8.81104C2.06794 8.27541 2.25921 6.86986 5.76171 5.16236C8.63296 3.76486 10.9282 4.1481 11.3232 5.00122C11.8914 6.21872 10.0955 8.48479 7.11425 8.81104C5.978 8.93416 5.45454 8.45408 5.30516 8.29346C5.15016 8.12471 5.12588 8.11573 5.06713 8.14698C4.97025 8.19823 5.03213 8.34753 5.06713 8.43628C5.15525 8.66253 5.54689 9.01691 6.17064 9.21753C6.71877 9.39253 7.97736 9.53945 9.58861 8.92945C11.3986 8.24757 12.7813 6.39529 12.3682 4.80591C12.1053 3.79615 10.9375 3.21125 9.46532 3.13355ZM8.50463 10.8057C8.55044 10.809 8.58444 10.826 8.6035 10.8582C8.706 11.0275 8.24737 12.2743 8.12987 12.5549C7.94237 13.0049 7.54652 14.1512 7.3059 14.0906C7.1009 14.0393 6.97439 13.1653 7.26439 12.3059C7.41064 11.8734 7.72148 11.3579 7.90648 11.1572C8.1282 10.9144 8.3672 10.7955 8.50463 10.8057ZM14.5923 12.2192C14.6266 12.3192 14.6447 12.4243 14.6472 12.5293C14.6441 13.1743 14.1729 13.4144 13.8891 13.5144C13.8304 13.4744 13.8382 13.3393 14.0344 12.9211C14.1107 12.758 14.2873 12.483 14.5923 12.2192ZM4.75219 12.9297C4.99531 13.8003 4.76123 14.5683 4.1931 15.1733C3.65435 15.749 2.89823 15.9668 2.57323 15.7837C2.22448 15.5856 2.36233 14.7373 3.02733 14.1235C3.43171 13.751 3.95368 13.4077 4.2993 13.1958C4.37868 13.1502 4.49193 13.0812 4.63256 12.998C4.65631 12.9837 4.66796 12.9785 4.66796 12.9785C4.69421 12.9616 4.72281 12.9472 4.75219 12.9297ZM12.113 13.0298C12.113 13.0442 12.1167 13.0593 12.1167 13.0762C12.1129 13.5887 11.6081 13.9348 11.3794 14.0723H11.3818V14.0735C11.3024 14.1135 11.2288 14.1387 11.1938 14.1187C11.1676 14.1043 11.2268 14.0503 11.2268 14.0503C11.2268 14.0503 11.6338 13.6227 11.7944 13.4277C11.8882 13.3134 11.9962 13.1785 12.113 13.0298Z" fill="#EEEEEE"/>
</svg>

<svg xmlns="http://www.w3.org/2000/svg" width="20" height="20" fill="none" xmlns:v="https://vecta.io/nano"><path d="M9.465 3.134c-.883-.047-1.876.089-2.848.426-1.544.536-3.213 1.378-4.414 2.476C.777 7.341.548 8.478.642 8.954c.334 1.687 2.713 2.787 3.665 3.601l-.132.071c-.478.232-2.249 1.143-2.703 2.123-.512 1.111.085 1.907.477 2.015 1.224.332 2.436-.249 3.109-1.23s.593-2.265.282-2.849c-.003-.009-.009-.014-.012-.023l.375-.216.688-.381c-.118.309-.202.683-.247 1.221-.052.63.213 1.445.559 1.766.152.141.337.144.45.144.404 0 .586-.326.787-.716.249-.476.469-1.028.469-1.028s-.275 1.494.479 1.494c.275 0 .551-.346.674-.524v.002s.005-.011.02-.034l.044-.068v-.009l.721-1.317c.474-.911.928-2.048.928-2.048a5.57 5.57 0 0 0 .182.739c.082.272.256.57.393.859l-.18.234c-.084.12-.184.243-.287.364l-.879 1.078c-.071.169-.053.294.082.392.099.074.276.086.46.072.337-.023.574-.104.688-.155a2.41 2.41 0 0 0 .591-.303c.366-.264.589-.642.569-1.14-.012-.275-.104-.551-.215-.808l.1-.143c.58-.828 1.028-1.736 1.028-1.736.044.25.104.497.182.739.071.232.208.487.334.736-.544.432-.882.934-1 1.263-.217.61-.046.884.273.947.144.029.348-.036.501-.099.226-.074.439-.181.632-.319.366-.264.721-.633.697-1.134-.009-.226-.072-.453-.157-.67.46-.189 1.057-.292 1.819-.206 1.631.186 1.951 1.183 1.89 1.598s-.404.648-.519.717-.149.095-.14.146c.014.074.067.071.164.054.135-.023.855-.338.887-1.108.047-.973-.91-2.044-2.605-2.036h-.003c-.588 0-1.169.132-1.697.387-.173-.341-.352-.639-.381-.862-.035-.261-.072-.415-.032-.724s.225-.748.222-.78-.041-.189-.419-.192-.703.072-.741.168a3.42 3.42 0 0 0-.155.547c-.067.335-.756 1.533-1.145 2.157-.129-.244-.237-.458-.26-.63-.035-.261-.074-.415-.033-.724s.226-.748.223-.78-.041-.189-.419-.192-.704.072-.742.168-.079.326-.155.547-.993 2.215-1.233 2.733l-.305.619-.026.049c.009-.014.015-.029.015-.023l-.103.192v.002c-.05.092-.106.176-.132.176-.018 0-.056-.241.009-.57.137-.693.463-1.77.46-1.808-.003-.02.06-.206-.215-.306-.267-.094-.362.063-.386.063s-.042.057-.042.057.295-1.215-.569-1.215c-.539 0-1.29.579-1.658 1.102l-1.26.674-.605.326-.042-.043c-1.049-1.094-2.985-1.868-2.903-3.337.029-.536.221-1.941 3.723-3.649 2.871-1.397 5.166-1.014 5.561-.161.568 1.218-1.228 3.484-4.209 3.81-1.136.123-1.66-.357-1.809-.518-.155-.169-.179-.178-.238-.146-.097.051-.035.201 0 .289.088.226.48.581 1.104.781.548.175 1.807.322 3.418-.288 1.81-.682 3.193-2.534 2.78-4.124-.263-1.01-1.431-1.595-2.903-1.672zm-.961 7.672c.046.003.08.02.099.053.103.169-.356 1.416-.474 1.697-.187.45-.583 1.596-.824 1.536-.205-.051-.332-.925-.042-1.785.146-.432.457-.948.642-1.149.222-.243.461-.362.598-.351zm6.088 1.414a1.03 1.03 0 0 1 .055.31c-.003.645-.474.885-.758.985-.059-.04-.051-.175.145-.593.076-.163.253-.438.558-.702zm-9.84.71a2.25 2.25 0 0 1-.559 2.244c-.539.576-1.295.793-1.62.61-.349-.198-.211-1.046.454-1.66.404-.373.926-.716 1.272-.928l.333-.198.035-.019.084-.049zm7.361.1c0 .014.004.03.004.046-.004.512-.509.859-.737.996h.002v.001c-.079.04-.153.065-.188.045-.026-.014.033-.068.033-.068l.568-.623.319-.398z" fill="#cf649a"/></svg>
